image/icon/Solitude_undiscovered.svg

<!--version="1.0" encoding="UTF-8"--><svg version="1.1" id="Layer_1" xmlns="http://www.w3.org/2000/svg" width="30" height="42" xml:space="preserve"><g id="PathID_8" transform="matrix(1, 0, 0, 1, 14.75, 21)"><path style="fill: rgb(255, 255, 255); fill-opacity: 1;" d="M12.4-13.25H9.1l-.25-.4-.2.4h-.4l.15-1.95h4v1.95m2.4-4.25V-.45q0 3.2-1.95 7.75-1.7 3.9-4.35 7.1l-.75.85-3 2.8q-2 1.6-3.9 2.65l-.3.3H-.5l-.25-.2-.1-.1-3.85-2.65-2.95-2.8Q-10.9 11.8-12.8 7.3q-1.95-4.5-1.95-7.75V-17.5h4.1l-.2-3.5h2.1l3.8 3.5H4.9L8.6-21h2.3l-.3 3.5h4.2M3.85-15.2h1.4l-1.4 1.35v-1.35m3.3 2.65q-.2 3.45-.1 4l1.85-3.1.4.7-.25 3.65 1.1 2.4-2.75 4-2.7 6.85L3.45 1.8 2.2-2.9l.6.4q.7.4 1.2.4 1.1 0 1.1-2l.15-.1 1.35.55q1.1.55 1.3.55v-.05q0-1.2-1.15-4.1l-1.4-2.2q.4 1.8.45 4.15h-.05L3.2-5q-.95.2-2.05 1.6 2 8.8 1.25 10.65-.35.9-2.2 1.05 1.65-2.25 1.7-2.9L.05 5.2H0l-1.85.2q.05.65 1.7 2.9Q-2 8.15-2.4 7.25q-.45-1.15.35-5.95l.9-4.7q-.95-1.35-2-1.6l-2.6-.3h-.05l.45-4.15-1.3 1.95q-1.2 3.4-1.2 4.35v.05q.2 0 1.3-.55l1.35-.55.15.1q-.2 1.95 1 1.95.8 0 1.9-.75l-1.3 4.7q-1.05 4.1-1.2 4.15 0-.15-2.75-6.85l-2.7-4 1.05-2.4-.25-4.05.45-.3 1.75 2.9q.15-.8-.3-7.2l4.3 4.1q1.7-1.2 2.65-1.2L-.9-4.3 0-3.25h.05L.9-4.3l-.4-8.75q.95 0 2.7 1.25l4.2-4.15-.25 3.4M9.5-20.1l-4.1 3.9H-5.5l-4.05-3.75.25 3.75h-4.25V-.45q0 3.1 1.95 7.5 2.1 4.7 5.6 8.2l2 1.8 3.95 2.65 3.9-2.65 2-1.8L8.5 12.2q1.75-2.35 3-5.15 1.95-4.4 1.95-7.5V-16.2H9.2l.3-3.9m2.9 14.65v5q0 2.9-1.85 7.05L8.5 10.35q-1.75 2.7-4.15 4.9l-.5.45V6.55l.45.35 1.35.5.05-1.3L8.35-.4l2.95-4.35-.3-.7h1.4M-8.25-13.3h-4.3v-1.9h4.2l.1 1.9m3.15-1.9H-4v1.05l-1.1-1.05m-7.45 9.75h1.6l-.1.15-.2.55L-8.3-.4l2.65 6.5.05 1.3 1.3-.5.3-.15v8.95l-.5-.45q-3.9-3.6-6.15-8.65-1.9-4.15-1.9-7.05v-5"/><path style="fill: rgb(0, 0, 0); fill-opacity: 1;" d="M12.4-15.2h-4l-.15 1.95h.4l.2-.4.25.4h3.3v-1.95m-8.55 1.35 1.4-1.35h-1.4v1.35m3.55-2.1L3.2-11.8Q1.45-13.05.5-13.05L.9-4.3.05-3.25H0L-.9-4.3l.45-8.75q-.95 0-2.65 1.2l-4.3-4.1q.45 6.4.3 7.2l-1.75-2.9-.45.3.25 4.05-1.05 2.4 2.7 4q2.75 6.7 2.75 6.85.15-.05 1.2-4.15l1.3-4.7q-1.1.75-1.9.75-1.2 0-1-1.95l-.15-.1-1.35.55q-1.1.55-1.3.55v-.05q0-.95 1.2-4.35l1.3-1.95-.45 4.15h.05l2.6.3q1.05.25 2 1.6l-.9 4.7q-.8 4.8-.35 5.95.4.9 2.25 1.05-1.65-2.25-1.7-2.9L0 5.2h.05l1.85.2q-.05.65-1.7 2.9 1.85-.15 2.2-1.05Q3.15 5.4 1.15-3.4 2.25-4.8 3.2-5l2.55-.3h.05q-.05-2.35-.45-4.15l1.4 2.2q1.15 2.9 1.15 4.1v.05q-.2 0-1.3-.55L5.25-4.2l-.15.1q0 2-1.1 2-.5 0-1.2-.4l-.6-.4 1.25 4.7L4.7 5.95 7.4-.9l2.75-4-1.1-2.4.25-3.65-.4-.7-1.85 3.1q-.1-.55.1-4l.25-3.4m1.8-.25h4.25V-.45q0 3.1-1.95 7.5-1.25 2.8-3 5.15l-2.65 3.05-2 1.8-3.9 2.65L-4 17.05l-2-1.8q-3.5-3.5-5.6-8.2-1.95-4.4-1.95-7.5V-16.2h4.25l-.25-3.75 4.05 3.75H5.4l4.1-3.9-.3 3.9M11-5.45l.3.7L8.35-.4 5.7 6.1l-.05 1.3-1.35-.5-.45-.35v9.15l.5-.45q2.4-2.2 4.15-4.9l2.05-3.75Q12.4 2.45 12.4-.45v-5H11M-8.35-15.2h-4.2v1.9h4.3l-.1-1.9M-4-14.15v-1.05h-1.1l1.1 1.05m-8.55 13.7q0 2.9 1.9 7.05 2.25 5.05 6.15 8.65l.5.45V6.75l-.3.15-1.3.5-.05-1.3L-8.3-.4l-2.95-4.35.2-.55.1-.15h-1.6v5"/></g></svg>

<?xml version="1.0" encoding="UTF-8"?>
<svg version="1.1" id="Layer_1" xmlns="http://www.w3.org/2000/svg" xmlns:xlink="http://www.w3.org/1999/xlink" width="30px" height="42px" xml:space="preserve">
<g id="PathID_8" transform="matrix(1, 0, 0, 1, 14.75, 21)">
<path style="fill:#FFFFFF;fill-opacity:1" d="M12.4 -13.25L9.1 -13.25L8.85 -13.65L8.65 -13.25L8.25 -13.25L8.4 -15.2L12.4 -15.2L12.4 -13.25M14.8 -17.5L14.8 -0.45Q14.8 2.75 12.85 7.3Q11.15 11.2 8.5 14.4L7.75 15.25L4.75 18.05Q2.75 19.65 0.85 20.7L0.55 21L-0.5 21L-0.75 20.8L-0.85 20.7L-4.7 18.05L-7.65 15.25Q-10.9 11.8 -12.8 7.3Q-14.75 2.8 -14.75 -0.45L-14.75 -17.5L-10.65 -17.5L-10.85 -21L-8.75 -21L-4.95 -17.5L4.9 -17.5L8.6 -21L10.9 -21L10.6 -17.5L14.8 -17.5M3.85 -15.2L5.25 -15.2L3.85 -13.85L3.85 -15.2M7.15 -12.55Q6.95 -9.1 7.05 -8.55L8.9 -11.65L9.3 -10.95L9.05 -7.3L10.15 -4.9L7.4 -0.9L4.7 5.95L3.45 1.8L2.2 -2.9L2.8 -2.5Q3.5 -2.1 4 -2.1Q5.1 -2.1 5.1 -4.1L5.25 -4.2L6.6 -3.65Q7.7 -3.1 7.9 -3.1L7.9 -3.15Q7.9 -4.35 6.75 -7.25L5.35 -9.45Q5.75 -7.65 5.8 -5.3L5.75 -5.3L3.2 -5Q2.25 -4.8 1.15 -3.4Q3.15 5.4 2.4 7.25Q2.05 8.15 0.2 8.3Q1.85 6.05 1.9 5.4L0.05 5.2L0 5.2L-1.85 5.4Q-1.8 6.05 -0.15 8.3Q-2 8.15 -2.4 7.25Q-2.85 6.1 -2.05 1.3L-1.15 -3.4Q-2.1 -4.75 -3.15 -5L-5.75 -5.3L-5.8 -5.3L-5.35 -9.45L-6.65 -7.5Q-7.85 -4.1 -7.85 -3.15L-7.85 -3.1Q-7.65 -3.1 -6.55 -3.65L-5.2 -4.2L-5.05 -4.1Q-5.25 -2.15 -4.05 -2.15Q-3.25 -2.15 -2.15 -2.9L-3.45 1.8Q-4.5 5.9 -4.65 5.95Q-4.65 5.8 -7.4 -0.9L-10.1 -4.9L-9.05 -7.3L-9.3 -11.35L-8.85 -11.65L-7.1 -8.75Q-6.95 -9.55 -7.4 -15.95L-3.1 -11.85Q-1.4 -13.05 -0.45 -13.05L-0.9 -4.3L0 -3.25L0.05 -3.25L0.9 -4.3L0.5 -13.05Q1.45 -13.05 3.2 -11.8L7.4 -15.95L7.15 -12.55M9.5 -20.1L5.4 -16.2L-5.5 -16.2L-9.55 -19.95L-9.3 -16.2L-13.55 -16.2L-13.55 -0.45Q-13.55 2.65 -11.6 7.05Q-9.5 11.75 -6 15.25L-4 17.05L-0.05 19.7L3.85 17.05L5.85 15.25L8.5 12.2Q10.25 9.85 11.5 7.05Q13.45 2.65 13.45 -0.45L13.45 -16.2L9.2 -16.2L9.5 -20.1M12.4 -5.45L12.4 -0.45Q12.4 2.45 10.55 6.6L8.5 10.35Q6.75 13.05 4.35 15.25L3.85 15.7L3.85 6.55L4.3 6.9L5.65 7.4L5.7 6.1L8.35 -0.4L11.3 -4.75L11 -5.45L12.4 -5.45M-8.25 -13.3L-12.55 -13.3L-12.55 -15.2L-8.35 -15.2L-8.25 -13.3M-5.1 -15.2L-4 -15.2L-4 -14.15L-5.1 -15.2M-12.55 -5.45L-10.95 -5.45L-11.05 -5.3L-11.25 -4.75L-8.3 -0.4L-5.65 6.1L-5.6 7.4L-4.3 6.9L-4 6.75L-4 15.7L-4.5 15.25Q-8.4 11.65 -10.65 6.6Q-12.55 2.45 -12.55 -0.45L-12.55 -5.45"/>
<path style="fill:#000000;fill-opacity:1" d="M12.4 -15.2L8.4 -15.2L8.25 -13.25L8.65 -13.25L8.85 -13.65L9.1 -13.25L12.4 -13.25L12.4 -15.2M3.85 -13.85L5.25 -15.2L3.85 -15.2L3.85 -13.85M7.4 -15.95L3.2 -11.8Q1.45 -13.05 0.5 -13.05L0.9 -4.3L0.05 -3.25L0 -3.25L-0.9 -4.3L-0.45 -13.05Q-1.4 -13.05 -3.1 -11.85L-7.4 -15.95Q-6.95 -9.55 -7.1 -8.75L-8.85 -11.65L-9.3 -11.35L-9.05 -7.3L-10.1 -4.9L-7.4 -0.9Q-4.65 5.8 -4.65 5.95Q-4.5 5.9 -3.45 1.8L-2.15 -2.9Q-3.25 -2.15 -4.05 -2.15Q-5.25 -2.15 -5.05 -4.1L-5.2 -4.2L-6.55 -3.65Q-7.65 -3.1 -7.85 -3.1L-7.85 -3.15Q-7.85 -4.1 -6.65 -7.5L-5.35 -9.45L-5.8 -5.3L-5.75 -5.3L-3.15 -5Q-2.1 -4.75 -1.15 -3.4L-2.05 1.3Q-2.85 6.1 -2.4 7.25Q-2 8.15 -0.15 8.3Q-1.8 6.05 -1.85 5.4L0 5.2L0.05 5.2L1.9 5.4Q1.85 6.05 0.2 8.3Q2.05 8.15 2.4 7.25Q3.15 5.4 1.15 -3.4Q2.25 -4.8 3.2 -5L5.75 -5.3L5.8 -5.3Q5.75 -7.65 5.35 -9.45L6.75 -7.25Q7.9 -4.35 7.9 -3.15L7.9 -3.1Q7.7 -3.1 6.6 -3.65L5.25 -4.2L5.1 -4.1Q5.1 -2.1 4 -2.1Q3.5 -2.1 2.8 -2.5L2.2 -2.9L3.45 1.8L4.7 5.95L7.4 -0.9L10.15 -4.9L9.05 -7.3L9.3 -10.95L8.9 -11.65L7.05 -8.55Q6.95 -9.1 7.15 -12.55L7.4 -15.95M9.2 -16.2L13.45 -16.2L13.45 -0.45Q13.45 2.65 11.5 7.05Q10.25 9.85 8.5 12.2L5.85 15.25L3.85 17.05L-0.05 19.7L-4 17.05L-6 15.25Q-9.5 11.75 -11.6 7.05Q-13.55 2.65 -13.55 -0.45L-13.55 -16.2L-9.3 -16.2L-9.55 -19.95L-5.5 -16.2L5.4 -16.2L9.5 -20.1L9.2 -16.2M11 -5.45L11.3 -4.75L8.35 -0.4L5.7 6.1L5.65 7.4L4.3 6.9L3.85 6.55L3.85 15.7L4.35 15.25Q6.75 13.05 8.5 10.35L10.55 6.6Q12.4 2.45 12.4 -0.45L12.4 -5.45L11 -5.45M-8.35 -15.2L-12.55 -15.2L-12.55 -13.3L-8.25 -13.3L-8.35 -15.2M-4 -14.15L-4 -15.2L-5.1 -15.2L-4 -14.15M-12.55 -0.45Q-12.55 2.45 -10.65 6.6Q-8.4 11.65 -4.5 15.25L-4 15.7L-4 6.75L-4.3 6.9L-5.6 7.4L-5.65 6.1L-8.3 -0.4L-11.25 -4.75L-11.05 -5.3L-10.95 -5.45L-12.55 -5.45L-12.55 -0.45"/>
</g>
</svg>
